X: 26609
T: Mick's Delight
R: jig
M: 6/8
K: Adorian
|:G|~A3 BAG|ABd ~e3|~A3 ~e3|dBG BAG|
EAA BAG|ABd e2a|age dBe|ABA A2:|
g|~a3 age|aga b2a|~g3 ~a3|~g3 deg|
~a3 age|aga b2a|~g3 dBG|ABA A2g|
~a3 age|aga b2a|~g3 ~a3|~g3 deg|
age age|aga b2a|~g3 dBG|EAA A2||

